X:35
T:Látod babám...
O: Sárpilis
Q: "Tempo guisto"
M:4/4
L:1/4
K:F
DA,D<F | AGF<E | D2 D z | 
A A cB | AAAG | F2Fz | 
AAcB | A/A/A/G/ F<E | 
DA, D<F | AGF<E | D2 Dz | 

